X: 2182
T: Aunt Hessie's White Horse
R: barndance
M: 4/4
K: Dmajor
|:D2 E2 F2 G2|AA zA Az A2|AA zA Az A2|AA zA Az A2|
D2 E2 F2 G2|AA zA Az A2|A2 G2 F2 E2|D8:|
d4 c4|B8|cz c4 B2|A8|
A4 B2 A2|c6 B2|A2 G2 F2 E2|D8|

